src/assets/img/layout/mail.svg

<svg xmlns="http://www.w3.org/2000/svg" viewBox="0 0 366.6 245">
  <path fill="#fffff" d="M341.4.7H24.7A24.4 24.4 0 0 0 .3 25.1V220a24.4 24.4 0 0 0 24.4 24.4h316.7a24.4 24.4 0 0 0 24.4-24.4V25.1A24.5 24.5 0 0 0 341.4.7zM183 153.6L32.7 19h301.1L183 153.6zm-68-36.5l-96.4 97.6v-184l96.4 86.4zm13.6 12.2L183 178l54.4-48.6 97.1 96.6H33.1l95.5-96.7zm122.5-12l96.4-86v181.9l-96.4-95.9z"/>
</svg>

<svg version="1.1" xmlns="http://www.w3.org/2000/svg" xmlns:xlink="http://www.w3.org/1999/xlink" x="0px" y="0px"
	 viewBox="0 0 366.6 245" style="enable-background:new 0 0 366.6 245;" xml:space="preserve">
<path style="fill:#FFFFF;" d="M341.4,0.7l-316.7,0C11.2,0.7,0.3,11.6,0.3,25.1l0,194.9c0,13.5,10.9,24.4,24.4,24.4l316.7,0
	c13.5,0,24.4-10.9,24.4-24.4l0-194.9C365.7,11.6,354.8,0.7,341.4,0.7z M183,153.6L32.7,19l301.1,0L183,153.6z M115,117.1l-96.4,97.6
	l0-184L115,117.1z M128.6,129.3l54.4,48.7l54.4-48.6l97.1,96.6l-301.4,0L128.6,129.3z M251.1,117.3l96.4-86l0,181.9L251.1,117.3z"/>
</svg>
